picto/luggage-prohibited-framed.svg

<svg class="color-immutable" width="30" height="30" viewBox="0 0 30 30" fill="none" xmlns="http://www.w3.org/2000/svg"><path d="M29.9999 0H0V29.9999H29.9999V0Z" fill="#2D327D"/><path d="M25.4999 2.99999C26.3249 2.99999 26.9999 3.67499 26.9999 4.49999V25.4999C26.9999 26.3249 26.3249 26.9999 25.4999 26.9999H4.49999C3.67499 26.9999 2.99999 26.3249 2.99999 25.4999V4.49999C2.99999 3.67499 3.67499 2.99999 4.49999 2.99999H25.4999ZM25.4999 2.62499H4.49999C3.46612 2.62499 2.62499 3.46612 2.62499 4.49999V25.4999C2.62499 26.5338 3.46612 27.3749 4.49999 27.3749H25.4999C26.5338 27.3749 27.3749 26.5338 27.3749 25.4999V4.49999C27.3749 3.46612 26.5338 2.62499 25.4999 2.62499Z" fill="white"/><path d="M24.0955 12.6245C24.0955 11.3824 23.0882 10.3739 21.8463 10.3739H17.8712V9.43618C17.8712 8.7119 17.2832 8.12405 16.5583 8.12405H13.6331C12.9086 8.12405 12.3214 8.71183 12.3214 9.43618V10.3739H11.451L6.70834 5.63121L5.64769 6.69186L9.32973 10.3739H8.34603C7.10396 10.3739 6.09604 11.3823 6.09604 12.6245V21.6253C6.09604 22.8657 7.10404 23.874 8.34603 23.874H21.8463C22.138 23.874 22.4165 23.8178 22.6723 23.7166L22.9898 24.0341L24.0503 22.9733L23.8055 22.7285C23.9898 22.4024 24.0954 22.0261 24.0954 21.6254V12.6245H24.0955ZM13.3711 9.17443H16.8214V10.3739H13.3711V9.17443Z" fill="white"/><path d="M6.70834 5.63129L5.64769 6.69186L22.9899 24.0341L24.0504 22.9732L6.70834 5.63129Z" fill="#EB0000"/></svg>

<svg class="color-immutable" width="30" height="30" viewBox="0 0 30 30" fill="none" xmlns="http://www.w3.org/2000/svg"><path d="M30 0H0v30h30V0Z" fill="#2D327D"/><path d="M25.5 3c.825 0 1.5.675 1.5 1.5v21c0 .825-.675 1.5-1.5 1.5h-21c-.825 0-1.5-.675-1.5-1.5v-21C3 3.675 3.675 3 4.5 3h21Zm0-.375h-21A1.877 1.877 0 0 0 2.625 4.5v21c0 1.034.841 1.875 1.875 1.875h21a1.877 1.877 0 0 0 1.875-1.875v-21A1.877 1.877 0 0 0 25.5 2.625Z" fill="#fff"/><path d="M24.096 12.624a2.25 2.25 0 0 0-2.25-2.25h-3.975v-.938c0-.724-.588-1.312-1.313-1.312h-2.925c-.724 0-1.312.588-1.312 1.312v.938h-.87L6.708 5.63l-1.06 1.06 3.682 3.683h-.984a2.251 2.251 0 0 0-2.25 2.25v9.001a2.25 2.25 0 0 0 2.25 2.249h13.5c.292 0 .57-.056.826-.157l.318.317 1.06-1.06-.245-.245c.185-.327.29-.703.29-1.104v-9ZM13.37 9.174h3.45v1.2h-3.45v-1.2Z" fill="#fff"/><path d="m6.708 5.631-1.06 1.06L22.99 24.035l1.06-1.06L6.708 5.63Z" fill="#EB0000"/></svg>
